X: 150
T: Sweet Richard
C: R-75
M: C|
Z: Transcribed to abc by Mary Lou Knack
R: reel
K: G
"G"D2G2 G2AG| "D7"F2A2- A2BA| "G"G2AB "C"cBAG| "G"B2d2- "D7"d2c2|
"G"B3c "C"d2e2| "D7"d2c2 "G"B4| "C"cBAG "D7"FGAF| "G"G4 G4 :|
|:\
"G"g2g2 g2ag| "D"f3e defg| "A7"a2g2 f2e2| "D"f2d2- d2cB|
"C"c2e2- e2BA| "G"B2d2- d2B2| "D"cdBc "G"ABGA| "D7"F2d2- d2c2|
"G"B3c "C"d2e2| "D7"d2c2 "G"B4| "C"cBAG "D7"FGAF| "G"G4 G,4 :|
%%text 9/1/98.  Colonial dance tune


